X:1
T:Title
%%score { 1 | 2 }
L:1/8
M:3/4
K:Ab
V:1 treble nm="Grand Piano"
V:2 bass 
V:1
 z2 z2[Q:1/4=104] [CE]2 | [Ec]2 [CA]2 [DF]2 | [CF]2 [CE]2 [CE]2 | [Ec]2 [CA]2 [DF]2 | [CE]4 [CE]2 | %5
 [DF]2 [FA]2 [FB]2 | c2 c2 e2 | e2 d2 c2 | B4 E2 | [Ec]2 [CA]2 [DF]2 | [DF]2 [CE]2 [CE]2 | %11
 [Ec]2 [CA]2 [DF]2 | [CE]4 [CE]2 | [CA]2 [Ec]2 [Ee]2 | [DF]2 [Fd]2 [FB]2 | A2 c2 B2 | %16
[M:2/4] [CA]4 |[M:1/4] [CA]2 |[M:3/4] [EB]4 [Ge]2 | [Ge]4 d2 | d2 c2 _c2 | c6 | [FB]2 [FA]2 [DF]2 | %23
 [DF]2 [CE]4 | [EA]2 B2 c2 | B6 | B2 B2 c2 | d4 cB | cc c2 d2 | e2 c2 z2 | [FB]2 [Fd]2 [FB]2 | %31
 A4 E2 | c4 B2 |[M:2/4] [CA]4 |] %34
V:2
 z2 z2 [A,,A,]2 | [A,,A,]2 [A,,E,]2 [A,,A,]2 | [A,,A,]2 [A,,A,]2 [A,,A,]2 | %3
 [A,,A,]2 [A,,E,]2 [A,,A,]2 | [A,,A,]4 [A,,A,]2 | [D,A,]2 [D,D]2 [D,A,]2 | [A,E]2 [A,E]2 [A,CE]2 | %7
 [A,CE]2 [G,B,E]2 [A,E]2 | [E,G,E]4 [E,G,]2 | [A,,A,]2 [A,,E,]2 [A,,A,]2 | %10
 [A,,A,]2 [A,,A,]2 [A,,A,]2 | [A,,A,]2 [A,,E,]2 [A,,A,]2 | [A,,A,]4 [A,,A,]2 | %13
 [A,,E,]2 [A,,A,]2 [C,A,]2 | [D,A,]2 [D,A,]2 [D,D]2 | [E,CE]2 [E,A,E]2 [E,G,D]2 |[M:2/4] [A,,A,]4 | %17
[M:1/4] [A,,E,]2 |[M:3/4] [E,G,]4 [E,B,]2 | [E,B,]4[K:treble] [A,F]2 | [A,F]2 [A,E]2 [A,=D]2 | %21
 [A,E]6 | [D,D]2 [D,D]2 [D,A,]2 | [A,,A,]2 [A,,A,]4 | [C,A,]2 [E,G,E]2 [A,E]2 | [E,G,E]6 | %26
 [E,G,E]2 [E,G,E]2 [E,A,E]2 | [E,B,E]4 [E,A,E][E,G,E] | [A,E][A,E] [A,E]2 [A,B,E]2 | %29
 [A,CE]2 [A,E]2 z2 | [D,D]2 [D,B,]2 [D,D]2 | [E,CE]4 [E,C]2 | [E,A,E]4 [E,G,D]2 | %33
[M:2/4] [A,,E,]4 |] %34

